x-pack/solutions/search/plugins/serverless_search/public/assets/enrichment.svg

<svg width="40" height="40" viewBox="0 0 40 40" fill="none" xmlns="http://www.w3.org/2000/svg">
<rect width="40" height="40" rx="20" fill="#79AAD9"/>
<path d="M15.5235 14.5744C15.5529 14.496 15.5676 14.4568 15.5771 14.4355C15.8378 13.8548 16.6622 13.8548 16.9229 14.4355C16.9324 14.4568 16.9471 14.496 16.9765 14.5744C17.0486 14.7665 17.0846 14.8626 17.1211 14.9538C18.0207 17.1996 19.8004 18.9793 22.0462 19.8789C22.1374 19.9154 22.2335 19.9514 22.4256 20.0235C22.504 20.0529 22.5432 20.0676 22.5645 20.0771C23.1452 20.3378 23.1452 21.1622 22.5645 21.4229C22.5432 21.4324 22.504 21.4471 22.4256 21.4765C22.2335 21.5486 22.1374 21.5846 22.0462 21.6211C19.8004 22.5207 18.0207 24.3004 17.1211 26.5462C17.0846 26.6374 17.0486 26.7335 16.9765 26.9256C16.9471 27.004 16.9324 27.0432 16.9229 27.0645C16.6622 27.6452 15.8378 27.6452 15.5771 27.0645C15.5676 27.0432 15.5529 27.004 15.5235 26.9256C15.4514 26.7335 15.4154 26.6374 15.3789 26.5462C14.4793 24.3004 12.6996 22.5207 10.4538 21.6211C10.3626 21.5846 10.2665 21.5486 10.0744 21.4765C9.996 21.4471 9.95678 21.4324 9.93554 21.4229C9.35482 21.1622 9.35482 20.3378 9.93554 20.0771C9.95678 20.0676 9.996 20.0529 10.0744 20.0235C10.2665 19.9514 10.3626 19.9154 10.4538 19.8789C12.6996 18.9793 14.4793 17.1996 15.3789 14.9538C15.4154 14.8626 15.4514 14.7665 15.5235 14.5744Z" fill="#343741"/>
<path d="M25.6771 11.2553C25.6902 11.2204 25.6967 11.203 25.7009 11.1936C25.8168 10.9355 26.1832 10.9355 26.2991 11.1936C26.3033 11.203 26.3098 11.2204 26.3229 11.2553C26.3549 11.3407 26.3709 11.3834 26.3872 11.4239C26.787 12.4221 27.5779 13.213 28.5761 13.6128C28.6166 13.6291 28.6593 13.6451 28.7447 13.6771C28.7796 13.6902 28.797 13.6967 28.8064 13.7009C29.0645 13.8168 29.0645 14.1832 28.8064 14.2991C28.797 14.3033 28.7796 14.3098 28.7447 14.3229C28.6593 14.3549 28.6166 14.3709 28.5761 14.3872C27.5779 14.787 26.787 15.5779 26.3872 16.5761C26.3709 16.6166 26.3549 16.6593 26.3229 16.7447C26.3098 16.7796 26.3033 16.797 26.2991 16.8064C26.1832 17.0645 25.8168 17.0645 25.7009 16.8064C25.6967 16.797 25.6902 16.7796 25.6771 16.7447C25.6451 16.6593 25.6291 16.6166 25.6128 16.5761C25.213 15.5779 24.4221 14.787 23.4239 14.3872C23.3834 14.3709 23.3407 14.3549 23.2553 14.3229C23.2204 14.3098 23.203 14.3033 23.1936 14.2991C22.9355 14.1832 22.9355 13.8168 23.1936 13.7009C23.203 13.6967 23.2204 13.6902 23.2553 13.6771C23.3407 13.6451 23.3834 13.6291 23.4239 13.6128C24.4221 13.213 25.213 12.4221 25.6128 11.4239C25.6291 11.3834 25.6451 11.3407 25.6771 11.2553Z" fill="#343741"/>
<path d="M24.8464 23.3191C24.8627 23.2756 24.8709 23.2538 24.8762 23.242C25.021 22.9193 25.479 22.9193 25.6238 23.242C25.6291 23.2538 25.6373 23.2756 25.6536 23.3191C25.6937 23.4259 25.7137 23.4792 25.734 23.5299C26.2337 24.7776 27.2224 25.7663 28.4701 26.266C28.5208 26.2863 28.5741 26.3064 28.6809 26.3464C28.7244 26.3627 28.7462 26.3709 28.758 26.3762C29.0807 26.521 29.0807 26.979 28.758 27.1238C28.7462 27.1291 28.7244 27.1373 28.6809 27.1536C28.5741 27.1937 28.5208 27.2137 28.4701 27.234C27.2224 27.7337 26.2337 28.7224 25.734 29.9701C25.7137 30.0208 25.6937 30.0741 25.6536 30.1809C25.6373 30.2244 25.6291 30.2462 25.6238 30.258C25.479 30.5807 25.021 30.5807 24.8762 30.258C24.8709 30.2462 24.8627 30.2244 24.8464 30.1809C24.8064 30.0741 24.7863 30.0208 24.766 29.9701C24.2663 28.7224 23.2776 27.7337 22.0299 27.234C21.9792 27.2137 21.9259 27.1937 21.8191 27.1536C21.7756 27.1373 21.7538 27.1291 21.742 27.1238C21.4193 26.979 21.4193 26.521 21.742 26.3762C21.7538 26.3709 21.7756 26.3627 21.8191 26.3464C21.9259 26.3064 21.9792 26.2863 22.0299 26.266C23.2776 25.7663 24.2663 24.7776 24.766 23.5299C24.7863 23.4792 24.8064 23.4259 24.8464 23.3191Z" fill="#343741"/>
</svg>

<svg xmlns="http://www.w3.org/2000/svg" width="40" height="40" fill="none"><rect width="40" height="40" fill="#79AAD9" rx="20"/><path fill="#343741" d="m15.524 14.574.053-.139a.738.738 0 0 1 1.346 0c.01.022.024.061.054.14.072.192.108.288.144.379a8.85 8.85 0 0 0 4.925 4.925c.091.036.188.072.38.144l.139.054a.738.738 0 0 1 0 1.346c-.022.01-.061.024-.14.054-.192.072-.288.108-.379.144a8.85 8.85 0 0 0-4.925 4.925c-.036.091-.072.188-.144.38l-.054.139a.738.738 0 0 1-1.346 0l-.053-.14c-.073-.192-.109-.288-.145-.379a8.85 8.85 0 0 0-4.925-4.925c-.091-.036-.187-.072-.38-.144l-.138-.054a.738.738 0 0 1 0-1.346c.02-.01.06-.024.138-.054a8.851 8.851 0 0 0 5.304-5.07c.037-.09.073-.187.146-.379M25.677 11.255l.024-.061a.328.328 0 0 1 .598 0l.024.061.064.169c.4.998 1.19 1.789 2.19 2.189l.168.064.061.024a.328.328 0 0 1 0 .598l-.061.024-.169.064c-.998.4-1.789 1.19-2.189 2.19l-.064.168-.024.061a.328.328 0 0 1-.598 0l-.024-.061-.064-.169a3.93 3.93 0 0 0-2.19-2.189l-.168-.064-.061-.024a.328.328 0 0 1 0-.598l.061-.024.169-.064c.998-.4 1.789-1.19 2.189-2.19zM24.846 23.32l.03-.078a.41.41 0 0 1 .748 0l.03.077.08.21a4.92 4.92 0 0 0 2.947 2.817l.077.03a.41.41 0 0 1 0 .748l-.077.03-.21.08a4.92 4.92 0 0 0-2.737 2.736l-.08.21-.03.078a.41.41 0 0 1-.748 0l-.03-.077-.08-.21a4.92 4.92 0 0 0-2.736-2.737l-.21-.08-.078-.03a.41.41 0 0 1 0-.748l.077-.03.21-.08a4.92 4.92 0 0 0 2.817-2.947"/></svg>
